src/assets/images/icons/check-double-line.svg

<svg xmlns="http://www.w3.org/2000/svg" width="24" height="24" fill="none" viewBox="0 0 24 24"><g clip-path="url(#a)"><path fill="#181d27" d="m11.602 13.76 1.412 1.412 8.466-8.466 1.414 1.414-9.88 9.88-6.364-6.364 1.414-1.414 2.125 2.125zm.002-2.828 4.952-4.953 1.41 1.41-4.952 4.953zm-2.827 5.655L7.364 18 1 11.636l1.414-1.414 1.413 1.413-.001.001z"/></g><defs><clipPath id="a"><path fill="#fff" d="M0 0h24v24H0z"/></clipPath></defs></svg>

<svg width="24" height="24" viewBox="0 0 24 24" fill="none" xmlns="http://www.w3.org/2000/svg">
<g clip-path="url(#clip0_58_16340)">
<path d="M11.602 13.76L13.014 15.172L21.48 6.706L22.894 8.12L13.014 18L6.65 11.636L8.064 10.222L10.189 12.347L11.602 13.759V13.76ZM11.604 10.932L16.556 5.979L17.966 7.389L13.014 12.342L11.604 10.932ZM8.777 16.587L7.364 18L1 11.636L2.414 10.222L3.827 11.635L3.826 11.636L8.777 16.587Z" fill="#181D27"/>
</g>
<defs>
<clipPath id="clip0_58_16340">
<rect width="24" height="24" fill="white"/>
</clipPath>
</defs>
</svg>
